src/icons/file-jsconfig.svg

<?xml version="1.0" encoding="UTF-8" standalone="no"?>
<svg
   version="1.2"
   viewBox="0 0 16 16"
   width="16"
   height="16"
   id="svg1"
   sodipodi:docname="jsconfig.json-svg.svg"
   inkscape:version="1.4 (e7c3feb100, 2024-10-09)"
   xmlns:inkscape="http://www.inkscape.org/namespaces/inkscape"
   xmlns:sodipodi="http://sodipodi.sourceforge.net/DTD/sodipodi-0.dtd"
   xmlns="http://www.w3.org/2000/svg"
   xmlns:svg="http://www.w3.org/2000/svg">
  <defs
     id="defs1" />
  <sodipodi:namedview
     id="namedview1"
     pagecolor="#505050"
     bordercolor="#eeeeee"
     borderopacity="1"
     inkscape:showpageshadow="0"
     inkscape:pageopacity="0"
     inkscape:pagecheckerboard="0"
     inkscape:deskcolor="#505050"
     inkscape:zoom="36.8125"
     inkscape:cx="8.0135823"
     inkscape:cy="8.0135823"
     inkscape:window-width="1326"
     inkscape:window-height="755"
     inkscape:window-x="20"
     inkscape:window-y="52"
     inkscape:window-maximized="0"
     inkscape:current-layer="svg1" />
  <title
     id="title1">jsconfig</title>
  <style
     id="style1">
		.s0 { fill: #8080a0 } 
		.s1 { fill: #f5aa52 } 
		.s2 { fill: #000000 } 
	</style>
  <g
     id="g2">
    <path
       id="path1"
       fill-rule="evenodd"
       class="s0"
       d="m4.9 0.5c0.1 0 0.2 0.1 0.4 0.3 0.4 0.4 1 0.7 1.7 0.7 0.7 0 1.3-0.3 1.7-0.7 0.2-0.2 0.3-0.3 0.4-0.3q0.1-0.1 0.3-0.1c0 0 0.1 0.1 0.3 0.1q0.8 0.4 1.5 0.9c0.2 0.1 0.3 0.2 0.3 0.3q0.1 0.1 0.1 0.2c0 0.1 0 0.2-0.1 0.5-0.1 0.6-0.1 1.3 0.3 1.9 0.3 0.5 0.8 0.9 1.4 1.1 0.3 0.1 0.4 0.1 0.5 0.2q0.1 0 0.2 0.1c0 0.1 0 0.2 0 0.4q0.1 0.2 0.1 0.5-0.1-0.1-0.2-0.1-0.8 0-1.7 0h-0.1-3-0.1q0 0 0 0c-0.2-0.9-1-1.5-1.9-1.5-1.1 0-2 0.9-2 2q0 0.2 0 0.4-0.7 0.5-1.1 1.3c-0.2 0.5-0.3 1-0.4 1.5q0 0.8 0 1.7v0.1 0.1q0 0.5 0 1-0.4-0.3-0.7-0.5c-0.2-0.1-0.3-0.2-0.3-0.3q-0.1-0.1-0.1-0.2c0-0.1 0-0.2 0.1-0.5 0.1-0.6 0.1-1.3-0.3-1.9-0.3-0.5-0.8-0.9-1.4-1.1-0.3-0.1-0.4-0.1-0.5-0.2q-0.1 0-0.2-0.1c0-0.1 0-0.2 0-0.4q-0.1-0.4-0.1-0.9 0-0.5 0.1-0.9c0-0.2 0-0.3 0-0.4q0.1-0.1 0.2-0.1c0.1-0.1 0.2-0.1 0.5-0.2 0.6-0.2 1.1-0.6 1.4-1.1 0.4-0.6 0.4-1.3 0.3-1.9-0.1-0.3-0.1-0.4-0.1-0.5q0-0.1 0.1-0.2c0-0.1 0.1-0.2 0.3-0.3q0.7-0.5 1.5-0.9c0.2 0 0.3-0.1 0.3-0.1q0.2 0 0.3 0.1z" />
    <path
       id="path2"
       class="s1"
       d="M 9 8 C 7.6 8 6.9003906 8.0007812 6.4003906 8.3007812 C 5.9003906 8.5007813 5.5007813 8.9003906 5.3007812 9.4003906 C 5.0007812 9.9003906 5 10.6 5 12 C 5 13.4 5.0007813 14.099609 5.3007812 14.599609 C 5.5007813 15.099609 5.9003906 15.499219 6.4003906 15.699219 C 6.9003906 15.999219 7.6 16 9 16 L 12 16 C 13.4 16 14.099609 15.999219 14.599609 15.699219 C 15.099609 15.499219 15.499219 15.099609 15.699219 14.599609 C 15.999219 14.099609 16 13.4 16 12 C 16 10.6 15.999219 9.9003906 15.699219 9.4003906 C 15.499219 8.9003906 15.099609 8.5007812 14.599609 8.3007812 C 14.099609 8.0007812 13.4 8 12 8 L 9 8 z M 9 9.4003906 C 9.4666667 9.4003906 9.6992188 9.7007813 9.6992188 10.300781 L 9.6992188 12.699219 C 9.6992188 13.299219 9.6333333 13.766276 9.5 14.099609 C 9.3 14.432943 9.0325521 14.700391 8.6992188 14.900391 C 8.2992187 15.033724 7.9 15.099609 7.5 15.099609 C 7.1 15.099609 6.733724 15.033724 6.4003906 14.900391 C 6.0670573 14.767057 5.7996094 14.567448 5.5996094 14.300781 C 5.3996094 14.034115 5.3007812 13.665885 5.3007812 13.199219 C 5.3007812 12.999219 5.3666667 12.867448 5.5 12.800781 C 5.6333333 12.667448 5.8 12.599609 6 12.599609 C 6.2 12.599609 6.3666667 12.667448 6.5 12.800781 C 6.6333333 12.934115 6.7341146 13.133724 6.8007812 13.400391 C 6.8007812 13.533724 6.833724 13.667448 6.9003906 13.800781 C 6.9670573 13.867448 7.0658854 13.933333 7.1992188 14 L 7.5 14 C 7.7 14 7.833724 13.967057 7.9003906 13.900391 C 8.033724 13.833724 8.1325521 13.7 8.1992188 13.5 C 8.2658854 13.233333 8.3007813 12.932943 8.3007812 12.599609 L 8.3007812 10.300781 C 8.3007812 9.7007812 8.5333333 9.4003906 9 9.4003906 z M 13.400391 9.4003906 C 13.733724 9.4003906 14.067057 9.4333333 14.400391 9.5 C 14.733724 9.5666667 14.999219 9.7003906 15.199219 9.9003906 C 15.332552 9.9670573 15.433333 10.065885 15.5 10.199219 C 15.566667 10.332552 15.599609 10.466276 15.599609 10.599609 C 15.599609 10.732943 15.533724 10.866667 15.400391 11 C 15.333724 11.066667 15.2 11.099609 15 11.099609 C 14.8 11.099609 14.666276 11.066667 14.599609 11 C 14.466276 10.933333 14.367448 10.867448 14.300781 10.800781 C 14.167448 10.667448 14.033724 10.566667 13.900391 10.5 C 13.767057 10.433333 13.600391 10.400391 13.400391 10.400391 C 13.200391 10.400391 13.066667 10.433333 13 10.5 C 12.866667 10.5 12.765885 10.565885 12.699219 10.699219 C 12.632552 10.765885 12.599609 10.833724 12.599609 10.900391 C 12.599609 11.033724 12.700391 11.167448 12.900391 11.300781 C 13.033724 11.434115 13.299219 11.532943 13.699219 11.599609 C 14.099219 11.732943 14.467448 11.866667 14.800781 12 C 15.134115 12.133333 15.366667 12.3 15.5 12.5 C 15.7 12.766667 15.800781 13.067057 15.800781 13.400391 C 15.800781 13.733724 15.7 14.034115 15.5 14.300781 C 15.3 14.567448 14.999609 14.767057 14.599609 14.900391 C 14.266276 15.033724 13.867057 15.099609 13.400391 15.099609 C 12.933724 15.099609 12.532552 15.033724 12.199219 14.900391 C 11.865885 14.833724 11.600391 14.7 11.400391 14.5 C 11.133724 14.3 11 14.067448 11 13.800781 C 11 13.667448 11.032943 13.533724 11.099609 13.400391 C 11.232943 13.267057 11.399609 13.199219 11.599609 13.199219 C 11.732943 13.199219 11.866667 13.234115 12 13.300781 C 12.133333 13.367448 12.234115 13.466276 12.300781 13.599609 C 12.434115 13.732943 12.600781 13.833724 12.800781 13.900391 C 12.934115 13.967057 13.133724 14 13.400391 14 L 13.800781 14 L 14.199219 13.800781 C 14.265885 13.667448 14.300781 13.566667 14.300781 13.5 C 14.300781 13.3 14.2 13.133333 14 13 C 13.8 12.933333 13.499609 12.867448 13.099609 12.800781 C 12.366276 12.600781 11.866276 12.366276 11.599609 12.099609 C 11.266276 11.766276 11.099609 11.367057 11.099609 10.900391 C 11.099609 10.633724 11.200391 10.366276 11.400391 10.099609 C 11.600391 9.8996094 11.865885 9.7329427 12.199219 9.5996094 C 12.599219 9.466276 13.000391 9.4003906 13.400391 9.4003906 z " />
  </g>
</svg>

<svg xmlns="http://www.w3.org/2000/svg" width="16" height="16" version="1.2"><path fill-rule="evenodd" d="M4.9.5c.1 0 .2.1.4.3a2.413 2.413 0 0 0 3.4 0c.2-.2.3-.3.4-.3q.1-.1.3-.1s.1.1.3.1q.8.4 1.5.9.3.15.3.3.1.1.1.2c0 .1 0 .2-.1.5-.1.6-.1 1.3.3 1.9.3.5.8.9 1.4 1.1.3.1.4.1.5.2q.1 0 .2.1v.4q.1.2.1.5-.1-.1-.2-.1H8.9C8.7 5.6 7.9 5 7 5c-1.1 0-2 .9-2 2v.4q-.7.5-1.1 1.3c-.2.5-.3 1-.4 1.5v2.9q-.4-.3-.7-.5-.3-.15-.3-.3-.1-.1-.1-.2c0-.1 0-.2.1-.5.1-.6.1-1.3-.3-1.9-.3-.5-.8-.9-1.4-1.1-.3-.1-.4-.1-.5-.2q-.1 0-.2-.1v-.4Q0 7.5 0 7t.1-.9v-.4q.1-.1.2-.1c.1-.1.2-.1.5-.2.6-.2 1.1-.6 1.4-1.1.4-.6.4-1.3.3-1.9-.1-.3-.1-.4-.1-.5q0-.1.1-.2 0-.15.3-.3.7-.5 1.5-.9c.2 0 .3-.1.3-.1q.2 0 .3.1" style="fill:#8080a0"/><path d="M9 8c-1.4 0-2.1 0-2.6.3-.5.2-.9.6-1.1 1.1C5 9.9 5 10.6 5 12s0 2.1.3 2.6c.2.5.6.9 1.1 1.1.5.3 1.2.3 2.6.3h3c1.4 0 2.1 0 2.6-.3.5-.2.9-.6 1.1-1.1.3-.5.3-1.2.3-2.6s0-2.1-.3-2.6c-.2-.5-.6-.9-1.1-1.1C14.1 8 13.4 8 12 8zm0 1.4q.7 0 .7.9v2.4q0 .9-.2 1.4-.3.5-.8.8-.6.2-1.2.2t-1.1-.2a1.8 1.8 0 0 1-.8-.6q-.3-.4-.3-1.1 0-.3.2-.4a.68.68 0 0 1 .5-.2q.3 0 .5.2.2.201.3.6 0 .2.1.4.1.1.3.2h.3q.3 0 .4-.1.2-.1.3-.4.1-.4.1-.9v-2.3q0-.9.7-.9m4.4 0q.5 0 1 .1t.8.4a.65.65 0 0 1 .3.3q.1.2.1.4t-.2.4q-.1.1-.4.1t-.4-.1a1.2 1.2 0 0 1-.3-.2 1.6 1.6 0 0 0-.4-.3q-.2-.1-.5-.1t-.4.1q-.2 0-.3.2-.1.1-.1.2 0 .2.3.4.2.2.8.3.6.2 1.1.4t.7.5q.3.4.3.9 0 .501-.3.9-.3.4-.9.6-.5.2-1.2.2t-1.2-.2q-.5-.1-.8-.4-.4-.3-.4-.7 0-.2.1-.4a.68.68 0 0 1 .5-.2q.2 0 .4.1a.65.65 0 0 1 .3.3q.2.2.5.3.201.1.6.1h.4l.4-.2q.1-.2.1-.3 0-.3-.3-.5-.3-.1-.9-.2-1.101-.3-1.5-.7a1.64 1.64 0 0 1-.5-1.2q0-.4.3-.8.3-.3.8-.5.6-.2 1.2-.2" style="fill:#f5aa52"/></svg>
